X:1
T:Bad Liquor
N:From the playing of Uncle Dick Hutchison (1897-1986, Disney,
N:northeast Oklahoma), recorded in the field in 1976 by Tom Carter
N:and Gary Stanton.
M:C|
L:1/8
R:Country Rag
Q:"Moderately Quick"
D: https://www.slippery-hill.com/recording/bad-liquor
Z:Transcribed by Andrew Kuntz
K:C
+slide+[e2e2]-|[e2e2]gd egde|gdeg- gedc|A2cG AcGA|cGAc- cAGF|
E4G4|[M:3/2]c3d eg-ga gecd|[M:C|] +slide+[e2e2] +slide+[e2e2]-[ee]dcA|c4-c2:||
[d2e2]-|[ee][de]-[e2e2]ga g2|[de]-[e3e3] g4|[GA]-[A3A3] cdcG|[A4A4]c4|
[e4e4] ga g2|[de]-[e3e3] g4|d2g-b- bg-a2|g6[d2e2]-|
[e4e4]gagd|[e4e4] g4|[GA]-[A3A3] cdcG|[A4A4]c3G|
G4 c3d|eg-ga g2[d2e2]-|[e2e2]ge- ecAG|c6||

